X: 2476
T: The Price Of A Pig
B: max new tunes
B: to learn
B: steve tunes
M:6/8
Q: 3/8=94
K:Adorian
V:1 
|: "Am"ede A2 A | "G"BAB G2 G | "Am"ege edB |"G" def gfg |
 "Am"ede A2 A | "G"BAB G2 G | "Am"ege edB |"G"BAG "Am"A3 :|
 |:"Am"efg aee | "G"efg "Am"~a2 a | "Am"age edB | "G"def gfg |
 "Am"ede A2 A | "G"BAB G2 G | "Am"ege edB |"G"BAG "Am"A3 :|
% abcbook-tune_id 634b88ae7484835e7fb36589


% abcbook-boost 0
% abcbook-tablature 
% abcbook-transpose 
% abcbook-lastupdated 1666010919981
% abcbook-soundfonts 
% abcbook-repeats 3


